packages/core/src/svgs/dodo.svg

<svg width="24" height="24" viewBox="0 0 24 24" fill="none" xmlns="http://www.w3.org/2000/svg">
<g clip-path="url(#clip0_31_9303)">
<path d="M0 0H24V24H0V0Z" fill="#FEF704"/>
<path fill-rule="evenodd" clip-rule="evenodd" d="M10.5601 4.61128C10.3201 5.10842 10.5558 5.6527 10.8944 6.09413C6.49293 6.73699 5.72578 10.8641 5.5715 13.2856H7.28578C7.38864 11.1427 8.40007 7.91556 11.9915 7.91556C15.5829 7.91556 16.5986 11.1427 16.6972 13.2856H18.4115C18.5486 11.0956 17.7858 6.8827 13.5301 6.12842C13.7572 5.58842 13.9158 4.83413 13.6629 4.61128C13.3629 4.34128 13.0201 4.65413 12.8829 4.83842C12.8615 4.34985 12.6772 3.38128 12.1415 3.42842C11.6015 3.47985 11.4429 4.45699 11.4344 4.94556C10.9972 4.27699 10.6715 4.44413 10.5601 4.61128ZM10.2858 10.7141C10.2858 10.6005 10.3309 10.4915 10.4113 10.4111C10.4917 10.3307 10.6007 10.2856 10.7144 10.2856C10.828 10.2856 10.937 10.3307 11.0174 10.4111C11.0978 10.4915 11.1429 10.6005 11.1429 10.7141V11.1427C11.1429 11.2564 11.0978 11.3654 11.0174 11.4457C10.937 11.5261 10.828 11.5713 10.7144 11.5713C10.6007 11.5713 10.4917 11.5261 10.4113 11.4457C10.3309 11.3654 10.2858 11.2564 10.2858 11.1427V10.7141ZM13.2858 10.2856C13.0501 10.2856 12.8572 10.4484 12.8572 10.6498V11.207C12.8572 11.4084 13.0501 11.5713 13.2858 11.5713C13.5215 11.5713 13.7144 11.4084 13.7144 11.207V10.6498C13.7144 10.4484 13.5215 10.2856 13.2858 10.2856ZM6.05578 14.1427H4.71436V17.5713H6.05578C6.97293 17.5713 7.71436 16.7998 7.71436 15.857C7.71436 14.9141 6.97293 14.1427 6.05578 14.1427ZM5.85436 14.9998H5.5715V16.7141H5.85436C6.39864 16.7141 6.85721 16.4184 6.85721 15.857C6.85721 15.2956 6.39864 14.9998 5.85436 14.9998ZM12.4286 14.1427H13.7701C14.6872 14.1427 15.4286 14.9141 15.4286 15.857C15.4286 16.7998 14.6872 17.5713 13.7701 17.5713H12.4286V14.1427ZM13.2858 14.9998H13.5686C14.1129 14.9998 14.5715 15.2956 14.5715 15.857C14.5715 16.4184 14.1129 16.7141 13.5686 16.7141H13.2858V14.9998ZM9.85721 17.5713C10.3119 17.5713 10.7479 17.3907 11.0694 17.0692C11.3909 16.7477 11.5715 16.3116 11.5715 15.857C11.5715 15.4023 11.3909 14.9663 11.0694 14.6448C10.7479 14.3233 10.3119 14.1427 9.85721 14.1427C9.40256 14.1427 8.96652 14.3233 8.64503 14.6448C8.32354 14.9663 8.14293 15.4023 8.14293 15.857C8.14293 16.3116 8.32354 16.7477 8.64503 17.0692C8.96652 17.3907 9.40256 17.5713 9.85721 17.5713ZM9.85721 16.7141C10.0845 16.7141 10.3026 16.6238 10.4633 16.4631C10.624 16.3023 10.7144 16.0843 10.7144 15.857C10.7144 15.6297 10.624 15.4116 10.4633 15.2509C10.3026 15.0902 10.0845 14.9998 9.85721 14.9998C9.62988 14.9998 9.41187 15.0902 9.25112 15.2509C9.09038 15.4116 9.00007 15.6297 9.00007 15.857C9.00007 16.0843 9.09038 16.3023 9.25112 16.4631C9.41187 16.6238 9.62988 16.7141 9.85721 16.7141ZM19.2858 15.857C19.2858 16.3116 19.1052 16.7477 18.7837 17.0692C18.4622 17.3907 18.0262 17.5713 17.5715 17.5713C17.1168 17.5713 16.6808 17.3907 16.3593 17.0692C16.0378 16.7477 15.8572 16.3116 15.8572 15.857C15.8572 15.4023 16.0378 14.9663 16.3593 14.6448C16.6808 14.3233 17.1168 14.1427 17.5715 14.1427C18.0262 14.1427 18.4622 14.3233 18.7837 14.6448C19.1052 14.9663 19.2858 15.4023 19.2858 15.857ZM18.4286 15.857C18.4286 16.0843 18.3383 16.3023 18.1776 16.4631C18.0168 16.6238 17.7988 16.7141 17.5715 16.7141C17.3442 16.7141 17.1262 16.6238 16.9654 16.4631C16.8047 16.3023 16.7144 16.0843 16.7144 15.857C16.7144 15.6297 16.8047 15.4116 16.9654 15.2509C17.1262 15.0902 17.3442 14.9998 17.5715 14.9998C17.7988 14.9998 18.0168 15.0902 18.1776 15.2509C18.3383 15.4116 18.4286 15.6297 18.4286 15.857Z" fill="black"/>
</g>
<defs>
<clipPath id="clip0_31_9303">
<rect width="24" height="24" fill="white"/>
</clipPath>
</defs>
</svg>

<svg xmlns="http://www.w3.org/2000/svg" width="24" height="24" fill="none" viewBox="0 0 24 24"><g clip-path="url(#a)"><path fill="#FEF704" d="M0 0h24v24H0z"/><path fill="#000" fill-rule="evenodd" d="M10.56 4.611c-.24.497-.004 1.042.334 1.483-4.401.643-5.168 4.77-5.322 7.192h1.714c.103-2.143 1.114-5.37 4.706-5.37 3.59 0 4.607 3.227 4.705 5.37h1.715c.137-2.19-.626-6.403-4.882-7.158.227-.54.386-1.294.133-1.517-.3-.27-.643.043-.78.227-.021-.488-.206-1.457-.741-1.41-.54.052-.7 1.029-.708 1.518-.437-.669-.762-.502-.874-.335m-.274 6.103a.428.428 0 1 1 .857 0v.429a.428.428 0 1 1-.857 0zm3-.428c-.236 0-.429.162-.429.364v.557c0 .201.193.364.429.364s.428-.163.428-.364v-.557c0-.202-.193-.364-.428-.364m-7.23 3.857H4.714v3.428h1.342c.917 0 1.658-.771 1.658-1.714s-.741-1.714-1.658-1.714M5.854 15h-.282v1.714h.282c.545 0 1.003-.296 1.003-.857S6.4 15 5.854 15m6.575-.857h1.341c.917 0 1.659.771 1.659 1.714s-.742 1.714-1.659 1.714H12.43zm.857.857h.283c.544 0 1.002.296 1.002.857s-.458.857-1.002.857h-.283zM9.857 17.57a1.714 1.714 0 1 0 0-3.428 1.714 1.714 0 0 0 0 3.428m0-.857a.857.857 0 1 0 0-1.714.857.857 0 0 0 0 1.714m9.429-.857a1.714 1.714 0 1 1-3.429 0 1.714 1.714 0 0 1 3.429 0m-.857 0a.857.857 0 1 1-1.715 0 .857.857 0 0 1 1.715 0" clip-rule="evenodd"/></g><defs><clipPath id="a"><path fill="#fff" d="M0 0h24v24H0z"/></clipPath></defs></svg>
